applebooks.svg

<svg viewBox="0 0 24 24" xmlns="http://www.w3.org/2000/svg"><defs><linearGradient gradientTransform="matrix(1.47393 0 0 1.47393 -5.66541 -5.98945)" gradientUnits="userSpaceOnUse" id="LinearGradient" x1="3.84375" x2="20.1268" y1="12.2051" y2="12.2051"><stop offset="0" stop-color="#ffa80b"/><stop offset="1" stop-color="#f27218"/></linearGradient></defs><path d="M6.03389 1.88685C4.25214 1.82094 2.38748 2.34771 0.921204 3.36078C0.0680991 4.01245 1.77636e-15 4.66273 1.77636e-15 5.24924C1.77636e-15 8.45431 1.77636e-15 16.0004 1.77636e-15 19.2055C7.02823e-07 19.792 0.399862 19.8268 0.921204 19.4358C3.85968 17.2793 7.48923 17.4322 9.58052 19.0673C11.6066 20.5721 11.6072 22.6017 11.6072 22.0152C11.6072 18.8753 11.6072 10.8955 11.6072 7.69043C11.6072 5.14297 11.2725 4.87783 10.686 3.95956C9.53961 2.6177 7.81563 1.95276 6.03389 1.88685ZM17.9635 1.88685C16.181 1.95202 14.5009 2.62066 13.3575 3.95956C12.7709 4.87783 12.4363 5.14297 12.4363 7.69043C12.4363 10.8955 12.4363 18.8753 12.4363 22.0152C12.4363 22.6017 12.4368 20.5721 14.4629 19.0673C16.5542 17.4322 20.1377 17.2793 23.0762 19.4358C23.5975 19.8268 23.9974 19.792 23.9974 19.2055C24.0033 16.0715 23.9974 8.54643 23.9974 5.34136C23.9974 4.75485 23.9293 4.05851 23.0762 3.40684C21.604 2.32861 19.746 1.82168 17.9635 1.88685Z" fill="url(#LinearGradient)"/></svg>

<svg viewBox="0 0 24 24" xmlns="http://www.w3.org/2000/svg"><defs><linearGradient gradientTransform="translate(-5.665 -5.99) scale(1.47393)" gradientUnits="userSpaceOnUse" id="a" x1="3.844" x2="20.127" y1="12.205" y2="12.205"><stop offset="0" stop-color="#ffa80b"/><stop offset="1" stop-color="#f27218"/></linearGradient></defs><path d="M6.034 1.887C4.252 1.82 2.387 2.347.92 3.36.068 4.012 0 4.663 0 5.249v13.957c0 .586.4.62.921.23 2.939-2.157 6.568-2.004 8.66-.369 2.026 1.505 2.026 3.535 2.026 2.948V7.69c0-2.547-.334-2.812-.921-3.73-1.146-1.342-2.87-2.007-4.652-2.073Zm11.93 0c-1.783.065-3.463.734-4.606 2.073-.587.918-.922 1.183-.922 3.73v14.325c0 .587 0-1.443 2.027-2.948 2.091-1.635 5.675-1.788 8.613.369.521.39.921.356.921-.23.006-3.134 0-10.66 0-13.865 0-.586-.068-1.282-.92-1.934-1.473-1.078-3.331-1.585-5.114-1.52Z" fill="url(#a)"/></svg>
